X: 27560
T: Money In Both Pockets
R: reel
M: 4/4
K: Dmajor
d~A3 dAFA|d~A3 g2fe|d~A3 dAFA|G~E3 GABc:|
d2fd edcA|(3Bcd ef g2fe|d2fd edcA|G~E3 GABc|
d2fd edcA|(3Bcd ef g2fg|abaf gfed|(3Bcd ef g2fe||

